assets/brand/yolki-logo.svg

<svg width="245" height="171" viewBox="0 0 245 171" fill="none" xmlns="http://www.w3.org/2000/svg">
<path d="M173.248 164.732C172.744 164.732 172.348 164.588 172.06 164.3C171.772 164.012 171.628 163.604 171.628 163.076V141.872C171.628 141.32 171.772 140.912 172.06 140.648C172.348 140.36 172.744 140.216 173.248 140.216C173.776 140.216 174.172 140.36 174.436 140.648C174.724 140.912 174.868 141.32 174.868 141.872V145.148L174.472 144.5C174.856 143.18 175.612 142.124 176.74 141.332C177.868 140.54 179.224 140.144 180.808 140.144C182.368 140.144 183.724 140.516 184.876 141.26C186.028 141.98 186.928 143.024 187.576 144.392C188.224 145.736 188.548 147.344 188.548 149.216C188.548 151.064 188.224 152.684 187.576 154.076C186.952 155.444 186.052 156.5 184.876 157.244C183.724 157.964 182.368 158.324 180.808 158.324C179.248 158.324 177.904 157.928 176.776 157.136C175.648 156.344 174.892 155.3 174.508 154.004H174.904V163.076C174.904 163.604 174.76 164.012 174.472 164.3C174.184 164.588 173.776 164.732 173.248 164.732ZM180.052 155.732C181.084 155.732 181.984 155.48 182.752 154.976C183.544 154.472 184.156 153.74 184.588 152.78C185.02 151.82 185.236 150.632 185.236 149.216C185.236 147.104 184.768 145.496 183.832 144.392C182.896 143.288 181.636 142.736 180.052 142.736C178.996 142.736 178.072 142.988 177.28 143.492C176.512 143.972 175.912 144.692 175.48 145.652C175.072 146.612 174.868 147.8 174.868 149.216C174.868 151.328 175.336 152.948 176.272 154.076C177.208 155.18 178.468 155.732 180.052 155.732ZM202.657 158.324C200.761 158.324 199.129 157.964 197.761 157.244C196.417 156.5 195.373 155.456 194.629 154.112C193.885 152.744 193.513 151.136 193.513 149.288C193.513 147.464 193.873 145.868 194.593 144.5C195.337 143.132 196.345 142.064 197.617 141.296C198.913 140.528 200.389 140.144 202.045 140.144C203.221 140.144 204.277 140.348 205.213 140.756C206.173 141.14 206.989 141.704 207.661 142.448C208.333 143.192 208.837 144.104 209.173 145.184C209.533 146.24 209.713 147.44 209.713 148.784C209.713 149.168 209.593 149.468 209.353 149.684C209.137 149.876 208.813 149.972 208.381 149.972H196.069V147.884H207.553L206.941 148.388C206.941 147.14 206.749 146.084 206.365 145.22C206.005 144.332 205.465 143.66 204.745 143.204C204.049 142.748 203.173 142.52 202.117 142.52C200.965 142.52 199.981 142.796 199.165 143.348C198.349 143.876 197.725 144.632 197.293 145.616C196.861 146.576 196.645 147.692 196.645 148.964V149.18C196.645 151.34 197.161 152.972 198.193 154.076C199.225 155.18 200.713 155.732 202.657 155.732C203.425 155.732 204.205 155.636 204.997 155.444C205.813 155.252 206.593 154.904 207.337 154.4C207.697 154.184 208.021 154.088 208.309 154.112C208.621 154.112 208.873 154.208 209.065 154.4C209.257 154.568 209.377 154.784 209.425 155.048C209.473 155.288 209.437 155.552 209.317 155.84C209.197 156.128 208.969 156.38 208.633 156.596C207.841 157.148 206.893 157.58 205.789 157.892C204.709 158.18 203.665 158.324 202.657 158.324ZM222.824 158.324C221.408 158.324 220.22 158.072 219.26 157.568C218.324 157.064 217.616 156.332 217.136 155.372C216.68 154.412 216.452 153.236 216.452 151.844V142.988H214.148C213.716 142.988 213.38 142.88 213.14 142.664C212.9 142.424 212.78 142.112 212.78 141.728C212.78 141.32 212.9 141.008 213.14 140.792C213.38 140.576 213.716 140.468 214.148 140.468H216.452V136.544C216.452 135.992 216.596 135.584 216.884 135.32C217.172 135.032 217.58 134.888 218.108 134.888C218.636 134.888 219.032 135.032 219.296 135.32C219.584 135.584 219.728 135.992 219.728 136.544V140.468H224.084C224.54 140.468 224.888 140.576 225.128 140.792C225.368 141.008 225.488 141.32 225.488 141.728C225.488 142.112 225.368 142.424 225.128 142.664C224.888 142.88 224.54 142.988 224.084 142.988H219.728V151.556C219.728 152.876 220.004 153.872 220.556 154.544C221.108 155.216 222.02 155.552 223.292 155.552C223.748 155.552 224.132 155.516 224.444 155.444C224.756 155.348 225.032 155.3 225.272 155.3C225.488 155.276 225.668 155.348 225.812 155.516C225.98 155.684 226.064 155.996 226.064 156.452C226.064 156.788 226.004 157.1 225.884 157.388C225.788 157.652 225.584 157.832 225.272 157.928C224.984 158.024 224.6 158.108 224.12 158.18C223.64 158.276 223.208 158.324 222.824 158.324Z" fill="black"/>
<path d="M212.631 65.7029C209.616 64.8396 207.371 63.0317 205.895 60.2793C204.438 57.4653 204.158 54.4893 205.057 51.3514C205.656 49.2595 206.655 47.5151 208.053 46.1181C209.513 44.7387 211.184 43.7859 213.066 43.2595C215.027 42.6893 217.022 42.6948 219.052 43.2762C221.021 43.84 222.656 44.8739 223.956 46.3779C225.335 47.8381 226.279 49.5397 226.788 51.4828C227.297 53.426 227.252 55.4435 226.653 57.5354C226.054 59.6273 225.015 61.3937 223.538 62.8346C222.078 64.2139 220.367 65.1888 218.406 65.759C216.525 66.2854 214.6 66.2667 212.631 65.7029ZM199.813 110.464C197.352 109.759 195.709 108.523 194.884 106.756C194.12 105.006 193.937 102.623 194.334 99.6082C194.811 96.5492 195.679 92.7036 196.939 88.0714C198.26 83.4569 199.528 79.7258 200.743 76.8782C202.019 74.0482 203.467 72.1326 205.085 71.1314C206.72 70.0686 208.769 69.8896 211.23 70.5943C213.691 71.299 215.304 72.5263 216.067 74.2762C216.91 75.9822 217.124 78.3735 216.709 81.4501C216.294 84.5267 215.426 88.3723 214.105 92.9869C212.845 97.619 211.577 101.35 210.3 104.18C209.042 106.949 207.594 108.864 205.959 109.927C204.323 110.99 202.275 111.169 199.813 110.464Z" fill="black"/>
<path d="M158.824 122.808C154.536 122.808 151.56 120.184 149.896 114.936C148.232 109.624 147.4 101.08 147.4 89.304C147.4 82.712 147.624 76.92 148.072 71.928C148.52 66.872 149.544 62.936 151.144 60.12C152.808 57.24 155.368 55.8 158.824 55.8C161.32 55.8 163.208 56.536 164.488 58.008C165.832 59.48 166.76 61.56 167.272 64.248C167.848 66.936 168.168 70.136 168.232 73.848C168.296 77.56 168.328 81.656 168.328 86.136L168.616 85.944C171.816 83.768 174.92 81.912 177.928 80.376C180.936 78.776 183.688 77.976 186.184 77.976C188.04 77.976 189.576 78.424 190.792 79.32C192.072 80.152 193.032 81.24 193.672 82.584C194.312 83.864 194.632 85.176 194.632 86.52C194.632 88.952 193.768 91.16 192.04 93.144C190.312 95.128 188.072 97.144 185.32 99.192C186.088 100.152 186.824 101.208 187.528 102.36C188.296 103.448 189.096 104.664 189.928 106.008C191.016 107.672 191.912 109.4 192.616 111.192C193.32 112.984 193.672 114.616 193.672 116.088C193.672 117.816 193.256 119.192 192.424 120.216C191.592 121.176 190.568 121.88 189.352 122.328C188.136 122.712 186.92 122.872 185.704 122.808C183.848 122.68 181.992 121.784 180.136 120.12C178.28 118.456 176.488 116.504 174.76 114.264C173.992 113.304 173.224 112.312 172.456 111.288C171.752 110.2 171.08 109.144 170.44 108.12C169.48 108.504 168.552 108.824 167.656 109.08C167.208 113.816 166.312 117.304 164.968 119.544C163.688 121.72 161.64 122.808 158.824 122.808Z" fill="black"/>
<path d="M130.632 122.808C127.368 122.808 124.936 121.592 123.336 119.16C121.736 116.664 120.68 112.952 120.168 108.024C119.656 103.032 119.4 96.792 119.4 89.304C119.4 84.376 119.464 79.864 119.592 75.768C119.784 71.672 120.232 68.152 120.936 65.208C121.64 62.2 122.76 59.896 124.296 58.296C125.832 56.632 127.976 55.8 130.728 55.8C133.48 55.8 135.624 56.632 137.16 58.296C138.696 59.896 139.816 62.2 140.52 65.208C141.224 68.152 141.64 71.672 141.768 75.768C141.96 79.864 142.056 84.376 142.056 89.304C142.056 100.568 141.256 108.984 139.656 114.552C138.12 120.056 135.112 122.808 130.632 122.808Z" fill="black"/>
<path d="M93.4 119.096C88.664 119.16 84.504 118.2 80.92 116.216C77.4 114.168 74.616 111.416 72.568 107.96C70.584 104.44 69.528 100.568 69.4 96.344C69.336 91.992 70.328 88.152 72.376 84.824C74.424 81.432 77.272 78.744 80.92 76.76C84.568 74.776 88.728 73.784 93.4 73.784C98.008 73.72 102.072 74.68 105.592 76.664C109.176 78.648 112.024 81.336 114.136 84.728C116.248 88.12 117.368 91.992 117.496 96.344C117.56 100.504 116.568 104.312 114.52 107.768C112.472 111.16 109.624 113.88 105.976 115.928C102.328 117.912 98.136 118.968 93.4 119.096ZM93.688 105.08C95.416 105.08 96.92 104.408 98.2 103.064C99.48 101.72 100.12 100.152 100.12 98.36C100.12 96.568 99.48 95.032 98.2 93.752C96.92 92.408 95.416 91.736 93.688 91.736C91.96 91.736 90.456 92.408 89.176 93.752C87.896 95.032 87.256 96.568 87.256 98.36C87.256 100.152 87.896 101.72 89.176 103.064C90.456 104.408 91.96 105.08 93.688 105.08Z" fill="black"/>
<path d="M42.3225 137.724C40.2504 138.133 38.2482 138.235 36.3158 138.029C34.4586 137.873 32.8472 137.311 31.4816 136.341C30.1283 135.434 29.2721 134.07 28.9128 132.249C28.4791 130.051 29.1554 128.189 30.9417 126.662C32.7279 125.135 34.8892 124.187 37.4255 123.817C40.2007 123.335 42.3107 122.788 43.7557 122.177C45.2511 121.49 46.3078 120.564 46.9258 119.398C41.1492 120.538 36.3669 120.601 32.579 119.587C28.7911 118.573 25.7591 116.432 23.4832 113.163C21.27 109.881 19.5997 105.383 18.4722 99.6695C17.8651 96.5928 17.6277 93.7367 17.76 91.1013C17.8799 88.403 18.4819 86.1641 19.5659 84.3846C20.7003 82.5299 22.4291 81.3734 24.7523 80.9149C27.8918 80.2954 30.3004 80.766 31.9783 82.3267C33.6438 83.8247 34.712 85.7666 35.1828 88.1526C35.604 90.2874 35.9877 92.3971 36.3338 94.4815C36.6675 96.5032 37.0834 98.2803 37.5815 99.8128C38.0796 101.345 38.8297 102.502 39.8318 103.283C40.8339 104.064 42.214 104.281 43.9721 103.934C45.7302 103.587 46.9245 102.862 47.5549 101.759C48.1853 100.656 48.4398 99.3011 48.3184 97.6942C48.1971 96.0873 47.9129 94.3168 47.4661 92.3827C47.0068 90.3858 46.5665 88.32 46.1453 86.1851C45.6249 83.548 45.8567 81.2517 46.8408 79.2962C47.8752 77.2655 49.9308 75.9466 53.0075 75.3395C55.3935 74.8687 57.432 75.2819 59.1231 76.579C60.8646 77.801 62.3033 79.6372 63.4392 82.0877C64.5627 84.4753 65.428 87.2075 66.0351 90.2842C67.0511 95.4329 67.4833 100.599 67.3319 105.782C67.2309 110.891 66.3087 115.639 64.5653 120.027C62.8847 124.404 60.2329 128.156 56.6101 131.284C53.05 134.401 48.2874 136.547 42.3225 137.724Z" fill="black"/>
</svg>

<svg xmlns="http://www.w3.org/2000/svg" width="245" height="171" fill="none"><path fill="#000" d="M173.248 164.732q-.756 0-1.188-.432t-.432-1.224v-21.204q0-.828.432-1.224.432-.432 1.188-.432.792 0 1.188.432.432.396.432 1.224v3.276l-.396-.648a5.72 5.72 0 0 1 2.268-3.168q1.692-1.188 4.068-1.188 2.34 0 4.068 1.116 1.728 1.08 2.7 3.132.972 2.016.972 4.824 0 2.772-.972 4.86-.936 2.052-2.7 3.168-1.728 1.08-4.068 1.08t-4.032-1.188-2.268-3.132h.396v9.072q0 .792-.432 1.224t-1.224.432m6.804-9q1.548 0 2.7-.756 1.188-.756 1.836-2.196t.648-3.564q0-3.168-1.404-4.824t-3.78-1.656q-1.584 0-2.772.756-1.152.72-1.8 2.16-.612 1.44-.612 3.564 0 3.168 1.404 4.86 1.404 1.656 3.78 1.656m22.605 2.592q-2.844 0-4.896-1.08a7.87 7.87 0 0 1-3.132-3.132q-1.116-2.052-1.116-4.824 0-2.736 1.08-4.788 1.116-2.052 3.024-3.204 1.944-1.152 4.428-1.152 1.764 0 3.168.612 1.44.576 2.448 1.692t1.512 2.736q.54 1.584.54 3.6 0 .576-.36.9-.324.288-.972.288h-12.312v-2.088h11.484l-.612.504q0-1.872-.576-3.168-.54-1.332-1.62-2.016-1.044-.684-2.628-.684-1.728 0-2.952.828-1.224.792-1.872 2.268-.648 1.44-.648 3.348v.216q0 3.24 1.548 4.896t4.464 1.656q1.152 0 2.34-.288a7 7 0 0 0 2.34-1.044q.54-.324.972-.288.468 0 .756.288.288.252.36.648.072.36-.108.792t-.684.756q-1.188.828-2.844 1.296a12 12 0 0 1-3.132.432m20.167 0q-2.124 0-3.564-.756a4.95 4.95 0 0 1-2.124-2.196q-.684-1.44-.684-3.528v-8.856h-2.304q-.648 0-1.008-.324-.36-.36-.36-.936 0-.612.36-.936t1.008-.324h2.304v-3.924q0-.828.432-1.224.432-.432 1.224-.432t1.188.432q.432.396.432 1.224v3.924h4.356q.684 0 1.044.324t.36.936q0 .576-.36.936-.36.324-1.044.324h-4.356v8.568q0 1.98.828 2.988t2.736 1.008q.684 0 1.152-.108a2.9 2.9 0 0 1 .828-.144.59.59 0 0 1 .54.216q.252.252.252.936 0 .504-.18.936-.144.396-.612.54-.432.144-1.152.252-.72.144-1.296.144m-10.193-92.621q-4.522-1.294-6.736-5.424-2.186-4.221-.838-8.928.899-3.137 2.996-5.233 2.19-2.07 5.013-2.858 2.941-.855 5.986.016 2.954.846 4.904 3.102a11.6 11.6 0 0 1 2.832 5.105q.763 2.914-.135 6.052-.899 3.138-3.115 5.3a12.4 12.4 0 0 1-5.132 2.924q-2.822.79-5.775-.056m-12.818 44.761q-3.692-1.058-4.929-3.708-1.146-2.625-.55-7.148.715-4.588 2.605-11.537 1.982-6.921 3.804-11.193 1.914-4.245 4.342-5.747 2.453-1.593 6.145-.537t4.837 3.682q1.264 2.56.642 7.174-.623 4.615-2.604 11.537-1.89 6.948-3.805 11.193-1.888 4.153-4.341 5.747t-6.146.537"/><path fill="#000" d="M158.824 122.808q-6.432 0-8.928-7.872-2.496-7.968-2.496-25.632 0-9.888.672-17.376.672-7.584 3.072-11.808 2.496-4.32 7.68-4.32 3.744 0 5.664 2.208 2.016 2.208 2.784 6.24.864 4.032.96 9.6t.096 12.288l.288-.192q4.8-3.264 9.312-5.568 4.512-2.4 8.256-2.4 2.784 0 4.608 1.344 1.92 1.248 2.88 3.264.96 1.92.96 3.936 0 3.648-2.592 6.624t-6.72 6.048a31 31 0 0 1 2.208 3.168 73 73 0 0 1 2.4 3.648 28.5 28.5 0 0 1 2.688 5.184q1.056 2.688 1.056 4.896 0 2.592-1.248 4.128a7.36 7.36 0 0 1-3.072 2.112 10.2 10.2 0 0 1-3.648.48q-2.784-.192-5.568-2.688t-5.376-5.856a121 121 0 0 1-2.304-2.976 239 239 0 0 1-2.016-3.168q-1.44.576-2.784.96-.672 7.104-2.688 10.464-1.92 3.264-6.144 3.264m-28.192 0q-4.896 0-7.296-3.648-2.4-3.744-3.168-11.136-.768-7.488-.768-18.72 0-7.392.192-13.536.288-6.144 1.344-10.56 1.056-4.512 3.36-6.912 2.304-2.496 6.432-2.496t6.432 2.496q2.304 2.4 3.36 6.912 1.056 4.416 1.248 10.56.288 6.144.288 13.536 0 16.896-2.4 25.248-2.304 8.256-9.024 8.256M93.4 119.096q-7.104.096-12.48-2.88-5.28-3.072-8.352-8.256-2.976-5.28-3.168-11.616-.096-6.528 2.976-11.52 3.072-5.088 8.544-8.064t12.48-2.976q6.912-.096 12.192 2.88 5.376 2.976 8.544 8.064t3.36 11.616q.096 6.24-2.976 11.424-3.072 5.088-8.544 8.16-5.472 2.976-12.576 3.168m.288-14.016q2.592 0 4.512-2.016t1.92-4.704-1.92-4.608q-1.92-2.016-4.512-2.016t-4.512 2.016q-1.92 1.92-1.92 4.608t1.92 4.704 4.512 2.016m-51.365 32.644q-3.11.614-6.007.305-2.786-.233-4.834-1.688-2.03-1.36-2.57-4.092-.65-3.297 2.03-5.587t6.483-2.845q4.164-.723 6.33-1.64 2.244-1.03 3.17-2.779-8.664 1.71-14.346.189t-9.096-6.424q-3.32-4.923-5.01-13.493-.911-4.615-.713-8.569.18-4.047 1.806-6.716 1.701-2.783 5.186-3.47 4.71-.93 7.226 1.412 2.499 2.247 3.205 5.826a213 213 0 0 1 1.15 6.328q.5 3.034 1.249 5.332.747 2.298 2.25 3.47 1.503 1.171 4.14.651 2.638-.52 3.583-2.175t.763-4.065q-.18-2.41-.852-5.311-.69-2.995-1.32-6.198-.782-3.955.695-6.889 1.552-3.046 6.166-3.957 3.58-.705 6.116 1.24 2.613 1.833 4.316 5.509 1.686 3.581 2.596 8.196a69.4 69.4 0 0 1 1.297 15.498q-.151 7.663-2.767 14.245-2.52 6.565-7.955 11.257-5.34 4.675-14.288 6.44"/></svg>
